X: 6293
T: Carradale Bay
R: jig
M: 6/8
K: Amajor
EAc e2c|dcB A2E|Fdc B2A|G/B/-BG F2E|
EAc e2c|dcB A2E|FBA G/e/-eG|A3 A2c|
eAc e2c|dcB A2E|Fdc B2A|G/B/-BG F2E|
eAc e2c|dcB A2E|FBA G/e/-eG|A2A A2c/d/||
|:cAA dEE|eEF E2e|d>cd B>GB|A>GB F2E|
cAA dEE|eEF E2E/E/|FBA G/e/-eG|1 A2A A2c/d/:|2 A2A A3||

